packages/kaspersky-hexa-ui-icons/src/iconsSVGs/48/Accounts.svg

<svg width="48" height="48" viewBox="0 0 48 48" fill="none" xmlns="http://www.w3.org/2000/svg">
<path fill-rule="evenodd" clip-rule="evenodd" d="M33.76 30.3499L30.89 29.6299C29.5486 29.2827 28.4158 28.3859 27.77 27.1599C30.06 24.8599 31.07 20.8999 31.07 18.3999C31.07 14.2578 27.7121 10.8999 23.57 10.8999C19.4279 10.8999 16.07 14.2578 16.07 18.3999C16.07 20.8999 17.07 24.8599 19.37 27.1599C18.7143 28.3817 17.5807 29.2762 16.24 29.6299L13.37 30.3499C10.2551 31.1298 8.0702 33.9289 8.07 37.1399V42.9999H39.07V37.1399C39.0687 33.926 36.8789 31.1259 33.76 30.3499ZM23.57 12.9999C26.5778 12.9777 29.037 15.3923 29.07 18.3999C29.07 21.3099 27.41 26.9999 23.57 26.9999C19.73 26.9999 18.07 21.3099 18.07 18.3999C18.0832 16.9545 18.6701 15.5735 19.7016 14.5608C20.733 13.5481 22.1246 12.9866 23.57 12.9999ZM37.07 40.9999H10.07V37.1399C10.0695 34.848 11.6273 32.8492 13.85 32.2899L16.73 31.5699C18.5244 31.118 20.0625 29.9653 21 28.3699C22.6281 29.2099 24.5619 29.2099 26.19 28.3699C27.1245 29.9596 28.654 31.1112 30.44 31.5699L33.31 32.2899C35.5366 32.8453 37.0994 34.8451 37.1 37.1399L37.07 40.9999ZM8.07 30.9999H0V25.7899C0.00367084 22.9482 1.9418 20.474 4.7 19.7899L7.19 19.1699C8.29455 18.8886 9.23476 18.1654 9.79 17.1699C8.02043 15.026 7.05801 12.3298 7.07 9.54994C6.96103 7.22772 8.09924 5.02376 10.0559 3.76828C12.0125 2.5128 14.4903 2.39653 16.5559 3.46328C18.6215 4.53002 19.961 6.61772 20.07 8.93994L18.07 9.11994C17.9932 7.51225 17.0645 6.06766 15.6338 5.33033C14.2031 4.593 12.4877 4.67496 11.1338 5.54533C9.77991 6.4157 8.99319 7.94225 9.07 9.54994C9.07 12.3199 10.54 16.5499 13.22 16.8299L12.98 18.8299C12.426 18.7581 11.8883 18.5924 11.39 18.3399C10.5571 19.7096 9.22231 20.6999 7.67 21.0999L5.18 21.7199C3.3125 22.1875 2.00195 23.8648 2 25.7899V28.9999H8.07V30.9999ZM47.13 25.7899V30.9999H39.06V28.9999H45.13V25.7899C45.1385 23.8755 43.8513 22.1976 42 21.7099L39.51 21.0899C37.9591 20.687 36.6253 19.6974 35.79 18.3299C35.2952 18.5824 34.7608 18.7481 34.21 18.8199L33.97 16.8199C36.64 16.4999 38.12 12.3099 38.12 9.53994C38.2387 7.05466 36.3203 4.94368 33.835 4.82494C31.3497 4.7062 29.2387 6.62466 29.12 9.10994L27.12 8.92994C27.229 6.60772 28.5685 4.52002 30.6341 3.45328C32.6997 2.38653 35.1775 2.5028 37.1341 3.75828C39.0908 5.01376 40.229 7.21772 40.12 9.53994C40.1185 12.301 39.153 14.975 37.39 17.0999C37.9466 18.0983 38.8912 18.8222 40 19.0999L42.49 19.7199C45.2477 20.4367 47.1619 22.9408 47.13 25.7899Z"  fill="currentColor"/>
</svg>

<svg xmlns="http://www.w3.org/2000/svg" width="48" height="48" fill="none" viewBox="0 0 48 48"><path fill="currentColor" fill-rule="evenodd" d="m33.76 30.3499-2.87-.72a4.92 4.92 0 0 1-3.12-2.47c2.29-2.3 3.3-6.26 3.3-8.76 0-4.1421-3.3579-7.5-7.5-7.5s-7.5 3.3579-7.5 7.5c0 2.5 1 6.46 3.3 8.76a5 5 0 0 1-3.13 2.47l-2.87.72c-3.1149.7799-5.2998 3.579-5.3 6.79v5.86h31v-5.86c-.0013-3.2139-2.1911-6.014-5.31-6.79m-10.19-17.35c3.0078-.0222 5.467 2.3924 5.5 5.4 0 2.91-1.66 8.6-5.5 8.6s-5.5-5.69-5.5-8.6a5.45 5.45 0 0 1 5.5-5.4m13.5 28h-27v-3.86c-.0005-2.2919 1.5573-4.2907 3.78-4.85l2.88-.72a6.91 6.91 0 0 0 4.27-3.2c1.6281.84 3.5619.84 5.19 0a6.93 6.93 0 0 0 4.25 3.2l2.87.72c2.2266.5554 3.7894 2.5552 3.79 4.85zm-29-10H0v-5.21c.0037-2.8417 1.9418-5.3159 4.7-6l2.49-.62a4.15 4.15 0 0 0 2.6-2 11.89 11.89 0 0 1-2.72-7.62 6.5071 6.5071 0 0 1 9.4859-6.0866A6.507 6.507 0 0 1 20.07 8.9399l-2 .18a4.5051 4.5051 0 0 0-9 .43c0 2.77 1.47 7 4.15 7.28l-.24 2a4.92 4.92 0 0 1-1.59-.49 6.15 6.15 0 0 1-3.72 2.76l-2.49.62c-1.8675.4676-3.178 2.1449-3.18 4.07v3.21h6.07zm39.06-5.21v5.21h-8.07v-2h6.07v-3.21c.0085-1.9144-1.2787-3.5923-3.13-4.08l-2.49-.62a6.18 6.18 0 0 1-3.72-2.76 4.86 4.86 0 0 1-1.58.49l-.24-2c2.67-.32 4.15-4.51 4.15-7.28.1187-2.4852-1.7997-4.5962-4.285-4.715-2.4853-.1187-4.5963 1.7998-4.715 4.285l-2-.18a6.5072 6.5072 0 1 1 13 .61 11.85 11.85 0 0 1-2.73 7.56 4.14 4.14 0 0 0 2.61 2l2.49.62c2.7577.7168 4.6719 3.2209 4.64 6.07" clip-rule="evenodd"/></svg>
